svgs/sharp-solid/buildings.svg

<svg xmlns="http://www.w3.org/2000/svg" viewBox="0 0 512 512"><!--! Font Awesome Pro 6.6.0 by @fontawesome - https://fontawesome.com License - https://fontawesome.com/license (Commercial License) Copyright 2024 Fonticons, Inc. --><path d="M512 0L192 0l0 128L0 128 0 512l192 0 320 0 0-384L512 0zM64 288l64 0 0 64-64 0 0-64zm256 32l-64 0 0-64 64 0 0 64zm64 0l0-64 64 0 0 64-64 0zM128 192l0 64-64 0 0-64 64 0zM256 64l64 0 0 64-64 0 0-64zm192 0l0 64-64 0 0-64 64 0zM256 224l0-64 64 0 0 64-64 0zm192 0l-64 0 0-64 64 0 0 64z"/></svg>

<svg xmlns="http://www.w3.org/2000/svg" viewBox="0 0 512 512"><!--! Font Awesome Pro 6.4.2 by @fontawesome - https://fontawesome.com License - https://fontawesome.com/license (Commercial License) Copyright 2023 Fonticons, Inc. --><path d="M512 0H192V128H0V512H192 512V128 0zM64 288h64v64H64V288zm256 32H256V256h64v64zm64 0V256h64v64H384zM128 192v64H64V192h64zM256 64h64v64H256V64zm192 0v64H384V64h64zM256 224V160h64v64H256zm192 0H384V160h64v64z"/></svg>
